assets/awselasticblockstorevolume/original.svg

<svg height="48" viewBox="0 0 48 48" width="48" xmlns="http://www.w3.org/2000/svg"><path d="m13.419 4h20.461l4.416 5.873h-29.291zm-6.419 7.873h33.3a1 1 0 0 0 .894-.554 1 1 0 0 0 -.096-1.047l-5.92-7.873a1 1 0 0 0 -.798-.399h-21.46a1 1 0 0 0 -.8.399l-5.918 7.873a1 1 0 0 0 -.096 1.047c.168.34.516.554.894.554m1.06 32.112h31.24v-28.614h-31.24zm32.24-30.614h-33.24a1 1 0 0 0 -1 1v30.614a1 1 0 0 0 1 1h33.24a1 1 0 0 0 1-1v-30.614a1 1 0 0 0 -1-1" fill="#7aa116" fill-rule="evenodd"/></svg>

<svg xmlns="http://www.w3.org/2000/svg" width="48" height="48" viewBox="0 0 48 48"><path fill="#7aa116" fill-rule="evenodd" d="M13.419 4H33.88l4.416 5.873H9.005zM7 11.873h33.3a1 1 0 0 0 .894-.554 1 1 0 0 0-.096-1.047l-5.92-7.873A1 1 0 0 0 34.38 2H12.92a1 1 0 0 0-.8.399l-5.918 7.873a1 1 0 0 0-.096 1.047c.168.34.516.554.894.554m1.06 32.112H39.3V15.371H8.06zM40.3 13.371H7.06a1 1 0 0 0-1 1v30.614a1 1 0 0 0 1 1H40.3a1 1 0 0 0 1-1V14.371a1 1 0 0 0-1-1"/></svg>
